icons/log-24.svg

<svg width="24" height="24" viewBox="0 0 24 24" fill="none" xmlns="http://www.w3.org/2000/svg">
<path d="M9.19716 10C8.78295 10 8.44716 10.3358 8.44716 10.75C8.44716 11.1642 8.78295 11.5 9.19716 11.5H15.6972C16.1114 11.5 16.4472 11.1642 16.4472 10.75C16.4472 10.3358 16.1114 10 15.6972 10H9.19716Z" fill="#24292F"/>
<path d="M6.81521 14C6.401 14 6.06521 14.3358 6.06521 14.75C6.06521 15.1642 6.401 15.5 6.81521 15.5H13.3152C13.7294 15.5 14.0652 15.1642 14.0652 14.75C14.0652 14.3358 13.7294 14 13.3152 14H6.81521Z" fill="#24292F"/>
<path d="M5.23448 18C4.82027 18 4.48448 18.3358 4.48448 18.75C4.48448 19.1642 4.82027 19.5 5.23448 19.5H11.7345C12.1487 19.5 12.4845 19.1642 12.4845 18.75C12.4845 18.3358 12.1487 18 11.7345 18H5.23448Z" fill="#24292F"/>
<path fill-rule="evenodd" clip-rule="evenodd" d="M4.125 0H19.875C22.1505 0 24 1.8258 24 4.125C24 5.50898 23.5244 6.9186 22.8721 8.28481C22.2203 9.65 21.3566 11.0417 20.5204 12.3893L20.5123 12.4024C19.6634 13.7702 18.8431 15.0931 18.2313 16.3723C17.6178 17.6549 17.25 18.8229 17.25 19.875C17.25 21.3247 18.4253 22.5 19.875 22.5C21.3247 22.5 22.5 21.3247 22.5 19.875C22.5 18.9656 22.0382 18.1638 21.3328 17.6916C20.9886 17.4612 20.8963 16.9954 21.1267 16.6511C21.3572 16.3069 21.823 16.2147 22.1672 16.4451C23.2708 17.1838 24 18.4441 24 19.875C24 22.1532 22.1532 24 19.875 24H4.5C2.22183 24 0.375 22.1532 0.375 19.875C0.375 17.6408 1.63318 15.2193 2.96544 12.9732C3.31301 12.3871 3.66696 11.8107 4.01454 11.2447C4.81533 9.9406 5.58229 8.69158 6.15944 7.50732H3.38925C2.56627 7.50732 1.50322 7.31369 0.821635 6.47218C0.3054 5.83481 0 5.04963 0 4.125C0 1.84683 1.84682 0 4.125 0ZM1.5 4.125C1.5 2.67525 2.67525 1.5 4.125 1.5H16.6929C16.1039 2.21321 15.75 3.12778 15.75 4.125C15.75 4.84803 15.9351 5.4736 16.249 6.00732H3.38925C2.72675 6.00732 2.24063 5.8409 1.98726 5.52808C1.68071 5.1496 1.5 4.6955 1.5 4.125ZM15.75 19.875C15.75 20.8722 16.1039 21.7868 16.6929 22.5H4.5C3.05025 22.5 1.875 21.3247 1.875 19.875C1.875 18.1089 2.89964 16.0245 4.25558 13.7384C4.56945 13.2092 4.90093 12.6697 5.23508 12.1258C6.18764 10.5754 7.1619 8.98974 7.8117 7.50732H18C18.3302 7.50732 18.6216 7.29132 18.7176 6.97534C18.8136 6.65935 18.6916 6.31777 18.4172 6.13407C17.671 5.63457 17.25 4.99048 17.25 4.125C17.25 2.67525 18.4253 1.5 19.875 1.5C21.3274 1.5 22.5 2.65955 22.5 4.125C22.5 5.18219 22.1318 6.35389 21.5185 7.63853C20.9068 8.91977 20.0865 10.2438 19.2377 11.6114L19.2205 11.6392C18.3872 12.9819 17.5275 14.3673 16.8781 15.7251C16.2259 17.0887 15.75 18.4951 15.75 19.875Z" fill="#24292F"/>
</svg>

<svg xmlns="http://www.w3.org/2000/svg" width="24" height="24" viewBox="0 0 24 24"><path d="M9.197 10a.75.75 0 000 1.5h6.5a.75.75 0 000-1.5h-6.5zm-2.382 4a.75.75 0 000 1.5h6.5a.75.75 0 000-1.5h-6.5zm-1.581 4a.75.75 0 000 1.5h6.5a.75.75 0 000-1.5h-6.5z"/><path fill-rule="evenodd" d="M4.125 0h15.75A4.113 4.113 0 0124 4.125c0 1.384-.476 2.794-1.128 4.16-.652 1.365-1.515 2.757-2.352 4.104l-.008.013c-.849 1.368-1.669 2.691-2.28 3.97-.614 1.283-.982 2.45-.982 3.503a2.625 2.625 0 104.083-2.183.75.75 0 01.834-1.247A4.125 4.125 0 0119.875 24H4.5a4.125 4.125 0 01-4.125-4.125c0-2.234 1.258-4.656 2.59-6.902.348-.586.702-1.162 1.05-1.728.8-1.304 1.567-2.553 2.144-3.738H3.39c-.823 0-1.886-.193-2.567-1.035A3.647 3.647 0 010 4.125 4.125 4.125 0 014.125 0zM1.5 4.125A2.625 2.625 0 014.125 1.5h12.568a4.108 4.108 0 00-.943 2.625c0 .723.185 1.349.499 1.882H3.389c-.662 0-1.148-.166-1.402-.479A2.148 2.148 0 011.5 4.125zm14.25 15.75c0 .997.354 1.912.943 2.625H4.5a2.625 2.625 0 01-2.625-2.625c0-1.766 1.025-3.85 2.38-6.137.314-.529.646-1.068.98-1.612.953-1.55 1.927-3.136 2.577-4.619H18a.75.75 0 00.417-1.373c-.746-.5-1.167-1.144-1.167-2.009A2.625 2.625 0 0119.875 1.5 2.613 2.613 0 0122.5 4.125c0 1.057-.368 2.229-.982 3.514-.611 1.28-1.431 2.605-2.28 3.972l-.017.028c-.834 1.343-1.694 2.728-2.343 4.086-.652 1.364-1.128 2.77-1.128 4.15z"/></svg>
